X: 354
T: the Praises of Limerick
R: march, air
%S: s:2 b:16(8+8)
B: O'Neill's 1850 #354
Q: "Animated."
O: Mrs.Fitzgerad
Z: Chris Falt, cfalt@trytel.com
M: C
L: 1/8
K: Gm
  d>c | B2A2 G3G | AGFD F2Bc | d2d2  c2Bc | d=efd g2 |\
|  dc | B2A2 G3G | AGFD F2dc | B2AG ^FGAF | G4    G2 |]
|| z2 | d3c db2a | gfdc d2z2 | f3d   c2Bc | d=efd g2 |\
|  dc | B2A2 G3G | AGFD F2dc | B2AG ^FGAF | G4    G2 |]
